X: 80
T: Virgo Maria, non est tibi similis
C: Gaspar van Weerbeke
%%abc-version 2.0
%%abcx-abcm2ps-target-version 5.9.1 (29 Sep 2008)
%%abc-creator hum2abc beta
%%abcx-conversion-date 2022/03/06 13:05:56
%%abc-copyright Copyright 2008, Pavanello, Agnese
%%abc-edited-by Mair-Gruber, Roland
%%humdrum-veritas 3037273250
%%humdrum-veritas-data 2385707327
%%linebreak <none>
%%barnumbers 0
L: 1/4
M: 2/2
N: Derived from Gas0405-Virgo_maria_non_est_tibi_similis.krn
%%staves [1 2 3 4]
V: 1 clef=treble
V: 2 clef=treble-8
V: 3 clef=treble-8
V: 4 clef=bass
K: C
[V:1] E4- | 
[V:2] B4- | 
[V:3] E4- | 
[V:4] E,4- | 
[V:1] E4 | 
[V:2] B4 | 
[V:3] E4 | 
[V:4] E,4 | 
[V:1] E2E2 | 
[V:2] c2B3/c/ | 
[V:3] G2G2 | 
[V:4] C,2E,2 | 
[V:1] F3E/D/ | 
[V:2] d4 | 
[V:3] A3B | 
[V:4] D,4 | 
[V:1] E4- | 
[V:2] G4 | 
[V:3] c4- | 
[V:4] C,4- | 
[V:1] E2G2- | 
[V:2] g3e- | 
[V:3] c4 | 
[V:4] C,4 | 
[V:1] G2A2 | 
[V:2] e/d/ c/B/A2 | 
[V:3] c2c2 | 
[V:4] E,2F,2 | 
[V:1] B2cd- | 
[V:2] zFED- | 
[V:3] d2ef- | 
[V:4] D,2C,_B,,- | 
[V:1] dc/B/c2- | 
[V:2] DE2^F/E/ | 
[V:3] fec2 | 
[V:4] B,,C,A,,2 | 
[V:1] c2B2 | 
[V:2] G4 | 
[V:3] d4 | 
[V:4] G,,4 | 
[V:1] c4 | 
[V:2] E>FGA- | 
[V:3] c4 | 
[V:4] C,4 | 
[V:1] z2c2 | 
[V:2] A/B<cd/e- | 
[V:3] c4 | 
[V:4] z4 | 
[V:1] c2c2 | 
[V:2] e/f/g2f | 
[V:3] A2A2 | 
[V:4] z4 | 
[V:1] B2AB- | 
[V:2] g2fg- | 
[V:3] GBcd- | 
[V:4] G,2A,G,- | 
[V:1] B/A/A2^G | 
[V:2] ge3 | 
[V:3] d/A/cB2 | 
[V:4] G,/F,/A,E,2 | 
[V:1] A4 | 
[V:2] c>d e/f/e- | 
[V:3] A4 | 
[V:4] A,,4 | 
[V:1] z4 | 
[V:2] ed/c/Bd- | 
[V:3] z4 | 
[V:4] A,2G,F, | 
[V:1] z4 | 
[V:2] dc2B | 
[V:3] z4 | 
[V:4] G,E,D,2 | 
[V:1] z2E2 | 
[V:2] c4 | 
[V:3] z4 | 
[V:4] C,4- | 
[V:1] G2G2 | 
[V:2] c>de3/d/ | 
[V:3] z2E2 | 
[V:4] C,4 | 
[V:1] E4 | 
[V:2] cB/A/Gc- | 
[V:3] G2G2 | 
[V:4] C,4- | 
[V:1] z2G2 | 
[V:2] c/ d/e/f/ g/f/e/d/ | 
[V:3] E4 | 
[V:4] C,4 | 
[V:1] A2GE- | 
[V:2] c2e2 | 
[V:3] z2G2 | 
[V:4] F,2E,/D,/C,/B,,/ | 
[V:1] ED/C<B,C/ | 
[V:2] zfe2 | 
[V:3] A2GE- | 
[V:4] A,,2E,A,, | 
[V:1] DE2D | 
[V:2] c2A2 | 
[V:3] EGF2 | 
[V:4] C,2D,2 | 
[V:1] E2z2 | 
[V:2] z4 | 
[V:3] E4 | 
[V:4] z2A,,2 | 
[V:1] z4 | 
[V:2] z4 | 
[V:3] z2A2 | 
[V:4] G,,G,,C,2 | 
[V:1] z4 | 
[V:2] z4 | 
[V:3] GGc2 | 
[V:4] B,,2A,,E,- | 
[V:1] z4 | 
[V:2] z4 | 
[V:3] B2AB- | 
[V:4] E,D,C,D,- | 
[V:1] z4 | 
[V:2] z4 | 
[V:3] B/A/^G/^F/^G2 | 
[V:4] D,/C,/B,,/A,,/B,,2 | 
[V:1] z4 | 
[V:2] z2A2 | 
[V:3] A4 | 
[V:4] A,,4 | 
[V:1] z2A2 | 
[V:2] GGc2 | 
[V:3] z4 | 
[V:4] z4 | 
[V:1] GGc2 | 
[V:2] B2Ae- | 
[V:3] z4 | 
[V:4] z2A,2 | 
[V:1] B2Ac- | 
[V:2] edce- | 
[V:3] z4 | 
[V:4] G,2A,2 | 
[V:1] c/B/A2^G | 
[V:2] e/d/cB2 | 
[V:3] z4 | 
[V:4] E,A,E,2 | 
[V:1] A4 | 
[V:2] A4 | 
[V:3] E4 | 
[V:4] A,,4 | 
[V:1] A2A2 | 
[V:2] c2c2 | 
[V:3] E2E2 | 
[V:4] A,,2A,,2 | 
[V:1] A4 | 
[V:2] d2Ad- | 
[V:3] F4 | 
[V:4] D,4 | 
[V:1] A2A2 | 
[V:2] d/e/f2e/d/ | 
[V:3] D2D2 | 
[V:4] D,2F,2 | 
[V:1] G4 | 
[V:2] cd2^c | 
[V:3] G4 | 
[V:4] E,4 | 
[V:1] F4 | 
[V:2] d4 | 
[V:3] A4 | 
[V:4] D,4 | 
[V:1] E2DE- | 
[V:2] c2Ac- | 
[V:3] A2FG- | 
[V:4] A,,2D,C,- | 
[V:1] ED2^C | 
[V:2] cA2A | 
[V:3] GFE2 | 
[V:4] C,D,A,,2 | 
[V:1] D4 | 
[V:2] F2A2 | 
[V:3] D4 | 
[V:4] A,4 | 
[V:1] F4 | 
[V:2] z2d2 | 
[V:3] A4 | 
[V:4] D,4 | 
[V:1] E2G2- | 
[V:2] G3c- | 
[V:3] c2G2 | 
[V:4] C,4- | 
[V:1] GFE2- | 
[V:2] cB/A/Gc | 
[V:3] E3G | 
[V:4] C,4 | 
[V:1] E2D2 | 
[V:2] BA2G/A/ | 
[V:3] F4 | 
[V:4] D,4 | 
[V:1] E4- | 
[V:2] B4 | 
[V:3] E4- | 
[V:4] G,4 | 
[V:1] E4- | 
[V:2] c2G2 | 
[V:3] E4- | 
[V:4] C,3B,, | 
[V:1] E4- | 
[V:2] A2B2 | 
[V:3] E4- | 
[V:4] A,,2G,,2 | 
[V:1] E4- | 
[V:2] c3B/A/ | 
[V:3] E4- | 
[V:4] A,,4 | 
[V:1] E4 |]  
[V:2] B4 |]  
[V:3] E4 |]  
[V:4] E,4 |]  


